!!!ONR: No. 28
!! From Harold Courlander, "Haiti Singing"
!! Chapel Hill: University of North Carolina Press, 1939
!! Copyright University of North Carolina Press
!!!ENC: D. Huron
**kern
*clefG2
*k[]
*M2/4
=1-
4r
8A
8c
=
6e
6e
6a
=
8g
8e
8g
8c
=
[2e
=
4e]
8A
8c
=
6e
6e
6e
=
8g
8e
8g
8c
=
2e
=
8a
8cc
8a
8g
=
6e
6e
6a
=
8g
8c
8e
8g
=
2e
=
8a
8cc
8a
8g
=
6e
6e
6cc
=
8a
8g
8a
8e
=
[2g
=
4g]
8A
8c
=
6e
6e
6a
=
8g
8e
8g
8c
=
[2e
=
4e]
8A
8c
=
6e
6e
6e
=
8g
8e
8g
8c
=
2e
=
8a
8cc
8a
8g
=
6e
6e
6a
=
8g
8c
8e
8g
=
2e
=
8a
8cc
8a
8g
=
6e
6e
6cc
=
8a
8g
8a
8e
=
2g
=
6a
6g
6g
=
6a
6g
6g
=
[4A
12A]
12c
12c
=
32c
32c
32c
32c
8r
4r
==
*-
